source/img/icon/graphic-icon.svg

<svg width="14" height="14" viewBox="0 0 14 14" fill="none" xmlns="http://www.w3.org/2000/svg">
<path d="M13.972 5.99304C13.9234 5.88968 13.8198 5.82355 13.7051 5.82355H12.8333C12.2789 2.8154 9.63745 0.528687 6.47144 0.528687C2.9033 0.528687 0 3.43199 0 7.00012C0 10.5683 2.903 13.4713 6.47144 13.4713C8.77424 13.4713 10.9219 12.2318 12.0761 10.2373C12.2387 9.95585 12.1428 9.59632 11.861 9.43339C11.5798 9.27046 11.22 9.36637 11.0577 9.64785C10.1128 11.2805 8.35544 12.295 6.47144 12.295C3.55205 12.295 1.17657 9.91981 1.17657 7.00072C1.17657 4.08104 3.55205 1.70585 6.47144 1.70585C8.98602 1.70585 11.0928 3.46952 11.6296 5.82385H10.7646C10.6499 5.82385 10.5465 5.88998 10.4977 5.99334C10.4491 6.0967 10.4649 6.21852 10.5382 6.30639L12.0091 8.07125C12.0651 8.13827 12.1476 8.17699 12.2351 8.17699C12.3224 8.17699 12.4052 8.13797 12.4609 8.07125L13.9318 6.30639C14.0051 6.21823 14.0206 6.0964 13.972 5.99304Z" fill="#F5F5F5"/>
<path d="M6.47144 1.99951C6.14647 1.99951 5.88316 2.26283 5.88316 2.5878V6.15742C5.61716 6.34389 5.44202 6.65128 5.44202 7.00038C5.44202 7.56812 5.90401 8.0301 6.47174 8.0301C6.62722 8.0301 6.77377 7.99287 6.90603 7.93062L8.95237 9.11166C9.0453 9.16557 9.14598 9.19089 9.24606 9.19089C9.44921 9.19089 9.64699 9.08544 9.75601 8.8966C9.91835 8.61571 9.82213 8.25559 9.54035 8.09325L7.49193 6.91043C7.46453 6.59946 7.30278 6.3278 7.06032 6.15802V2.5878C7.05973 2.26312 6.79612 1.99951 6.47144 1.99951ZM6.47144 7.44122C6.22808 7.44122 6.0303 7.24314 6.0303 7.00038C6.0303 6.75732 6.22838 6.55924 6.47144 6.55924C6.7145 6.55924 6.91258 6.75732 6.91258 7.00038C6.91258 7.24314 6.7145 7.44122 6.47144 7.44122Z" fill="#F5F5F5"/>
</svg>

<svg width="14" height="14" fill="none" xmlns="http://www.w3.org/2000/svg"><path d="M13.972 5.993a.295.295 0 0 0-.267-.17h-.872A6.479 6.479 0 0 0 6.471.53 6.48 6.48 0 0 0 0 7a6.479 6.479 0 0 0 6.471 6.471c2.303 0 4.45-1.24 5.605-3.234a.588.588 0 0 0-1.018-.59 5.316 5.316 0 0 1-4.587 2.648 5.3 5.3 0 0 1-5.294-5.294A5.301 5.301 0 0 1 6.47 1.706a5.3 5.3 0 0 1 5.159 4.118h-.865a.295.295 0 0 0-.227.482l1.471 1.765a.294.294 0 0 0 .452 0l1.47-1.765a.294.294 0 0 0 .041-.313z" fill="#F5F5F5"/><path d="M6.471 2a.588.588 0 0 0-.588.588v3.57A1.028 1.028 0 0 0 6.906 7.93l2.046 1.18a.588.588 0 0 0 .588-1.018L7.492 6.91a1.025 1.025 0 0 0-.432-.752v-3.57A.59.59 0 0 0 6.471 2zm0 5.441a.442.442 0 1 1 .001-.883.442.442 0 0 1 0 .883z" fill="#F5F5F5"/></svg>
